X:1
%%MIDI gchord c
T:Agent 000
C:Bruno Scherrer
M:5/4
L:1/8
Q:1/4=180
K:Eb 
"^A""Cm9"AG-G8 | ^F.G z8 | AG-G8 | c.G z8 |
"DbΔ"AG-G8 | E._D z8 | "Cm9"C2-C8 | z2 z8 :|
"^B""FΔ"AG-G8 | "F#dim"^F.G z8 | "G7b9"AG-G8 | "AbΔ"c.G z8 |
"EbΔ"AG-G8 | "DbΔ"E._D z8 | "Cm9"C2-C8 | z2 z8 ||
%%newpage

